src/cui/assets/icons/star-full.svg

<svg fill="none" height="24" viewBox="0 0 24 24" width="24" xmlns="http://www.w3.org/2000/svg" xmlns:xlink="http://www.w3.org/1999/xlink"><clipPath id="a"><path d="m0 0h24v24h-24z"/></clipPath><g clip-path="url(#a)"><path d="m17.56 21c-.1599.0006-.3177-.0371-.46-.11l-5.1-2.67-5.1 2.67c-.16561.0871-.35232.126-.53892.1122-.1866-.0137-.3656-.0796-.51665-.19s-.26809-.261-.33782-.4346c-.06972-.1737-.08934-.3634-.05661-.5476l1-5.63-4.12-4c-.12854-.1283-.21973-.28913-.26377-.4653-.04405-.17618-.03929-.36102.01377-.53469.05796-.17773.16458-.33565.30775-.45585.14317-.12019.31717-.19785.50225-.22415l5.7-.83 2.51-5.13c.0819-.16908.2097-.31166.3689-.41143s.3432-.15268.5311-.15268.3719.05291.5311.15268.287.24235.3689.41143l2.54 5.12 5.7.83c.1851.0263.3591.10396.5023.22415.1431.1202.2497.27812.3077.45585.0531.17367.0578.35851.0138.53469-.0441.17617-.1353.337-.2638.4653l-4.12 4 1 5.63c.0357.1875.017.3813-.0539.5585-.0708.1772-.191.3304-.3461.4415-.1811.1269-.3991.1902-.62.18z" fill="#ffb81c"/></g></svg>

<svg width="24" height="24" viewBox="0 0 24 24" fill="none" xmlns="http://www.w3.org/2000/svg">
<g clip-path="url(#clip0_3498_4921)">
<path d="M17.56 21C17.4001 21.0006 17.2423 20.9629 17.1 20.89L12 18.22L6.9 20.89C6.73439 20.9771 6.54768 21.016 6.36108 21.0022C6.17448 20.9885 5.99548 20.9226 5.84443 20.8122C5.69338 20.7018 5.57634 20.5512 5.50661 20.3776C5.43689 20.2039 5.41727 20.0142 5.45 19.83L6.45 14.2L2.33 10.2C2.20146 10.0717 2.11027 9.91087 2.06623 9.7347C2.02218 9.55852 2.02694 9.37368 2.08 9.20001C2.13796 9.02228 2.24458 8.86436 2.38775 8.74416C2.53092 8.62397 2.70492 8.54631 2.89 8.52001L8.59 7.69001L11.1 2.56001C11.1819 2.39093 11.3097 2.24835 11.4689 2.14858C11.6281 2.04881 11.8121 1.9959 12 1.9959C12.1879 1.9959 12.3719 2.04881 12.5311 2.14858C12.6903 2.24835 12.8181 2.39093 12.9 2.56001L15.44 7.68001L21.14 8.51001C21.3251 8.53631 21.4991 8.61397 21.6423 8.73416C21.7854 8.85436 21.892 9.01228 21.95 9.19001C22.0031 9.36368 22.0078 9.54852 21.9638 9.7247C21.9197 9.90087 21.8285 10.0617 21.7 10.19L17.58 14.19L18.58 19.82C18.6157 20.0075 18.597 20.2013 18.5261 20.3785C18.4553 20.5557 18.3351 20.7089 18.18 20.82C17.9989 20.9469 17.7809 21.0102 17.56 21Z" fill="#FFB81C"/>
</g>
<defs>
<clipPath id="clip0_3498_4921">
<rect width="24" height="24" fill="white"/>
</clipPath>
</defs>
</svg>
